!!!OTL-incipit: ES SASS AUF GRUENER HAIDE
!!!ARE: Europa, Mitteleuropa, Deutschland
!!!SCT: Z0034
!!!TXL: @@DE
!!!YEM: Copyright 1995, estate of Helmut Schaffrath.
**kern	**text
*ICvox	*
*M6/8	*
*k[]	*
*a:	*
!LO:TX:a:t=Deutſch.	!
{8e	Es
=1	=1
4a	ſaß
8a	auf
8bL	grü-
8aJ	.
8b/	-ner
=2	=2
4.cc	Hai-
8b	-de,
8r}	.
{16bL	ein
16ccJ	.
=3	=3
4dd	Schä-
8cc	-fer
4b/	grau
8a	und
=4	=4
4.e	alt,
4r}	.
{8e	Es
=5	=5
4a	ſaß
8a	auf
8bL	grü-
8aJ	.
8b/	-ner
=6	=6
4.cc	Hai-
8b	-de,
8r}	.
{16bL	ein
16ccJ	.
=7	=7
4dd	Schä-
8cc	-fer
4b/	grau
8a	und
=8	=8
4.e	alt,
4r}	.
{8e	es
=9	=9
8bL	gra-
8g#J	.
8e	-ſten
4e	auf
8e	der
=10	=10
(4cc	Wei-
8b)	.
4a}	-de
{8a	die
=11	=11
4dd	Schäflein
8cc	.
4b/	längs
8a	dem
=12	=12
4b	Wald;
8r	.
4r	.
8r}	.
=13	=13
{8a	Son-
8b	-ne,
8cc	noch
(8dd	ein-
8cc)	.
8b	-mal
=14	=14
8a	blik-
8b/	-ke
8e	ʒu-
4a}	-rück.
==;;	==;;
!!!AGN: Sagen - Lied, Romanze, Tod
!!!ONB: ESAC (Essen Associative Code) Database: ZUCCAL
!!!AMT: compound duple
!!!AIN: vox
!!!EED: Helmut Schaffrath
!!!EEV: 1.0
!!!GTL: I. Ernste Romanzen und Sagen.
!!!URL-scan: https://www.digitale-sammlungen.de/de/view/bsb11160571?page=70
!!!ENC: Anna Maria Matuszewska
!!!EEV: 2025/01/23
*-	*-
